Newaita-dark/apps/64/QtAV.svg

<svg height="64" viewBox="0 0 64 64" width="64" xmlns="http://www.w3.org/2000/svg" xmlns:xlink="http://www.w3.org/1999/xlink"><linearGradient id="a"><stop offset="0" stop-opacity=".313726"/><stop offset=".222222" stop-opacity=".27451"/><stop offset="1" stop-opacity="0"/></linearGradient><radialGradient id="b" cx="450.908936" cy="189.579361" gradientTransform="matrix(.00000035 -.156265 -.281277 -.0000002 89.046304 127.190659)" gradientUnits="userSpaceOnUse" r="21.166656" xlink:href="#a"/><radialGradient id="c" cx="450.908936" cy="189.579361" gradientTransform="matrix(-.00000035 .156265 .281277 .0000002 -25.540237 -15.054964)" gradientUnits="userSpaceOnUse" r="21.166656" xlink:href="#a"/><radialGradient id="d" cx="450.908936" cy="189.579361" gradientTransform="matrix(-.00000035 -.156265 .281277 -.0000002 -25.540237 127.190659)" gradientUnits="userSpaceOnUse" r="21.166656" xlink:href="#a"/><radialGradient id="e" cx="450.908936" cy="189.579361" gradientTransform="matrix(.00000035 .156265 -.281277 .0000002 89.0463 -15.054965)" gradientUnits="userSpaceOnUse" r="21.166656" xlink:href="#a"/><linearGradient id="f" gradientTransform="matrix(.0267201 0 0 .125012 24.930772 26.877567)" gradientUnits="userSpaceOnUse" x1="255.323059" x2="255.323044" y1="233.5" y2="254.666656"><stop offset="0" stop-opacity=".27451"/><stop offset="1" stop-opacity="0"/></linearGradient><linearGradient id="g"><stop offset="0" stop-color="#4db6ac"/><stop offset="1" stop-color="#26a69a"/></linearGradient><linearGradient id="h" gradientUnits="userSpaceOnUse" x1="31.753048" x2="31.753048" xlink:href="#g" y1="5.60208899994" y2="55.877749"/><linearGradient id="i" gradientUnits="userSpaceOnUse" x1="33.64247594541" x2="33.64247594541" y1="10.94833994541" y2="49.506642"><stop offset="0" stop-color="#e0e0e0"/><stop offset="1" stop-color="#eee"/></linearGradient><linearGradient id="j" gradientUnits="userSpaceOnUse" x1="37.04522362524" x2="37.04522362524" xlink:href="#g" y1="17.69960025772" y2="40.19134313278"/><path d="m36.382812 56.066406h5.292969v-2.644531h-5.292969zm0 0" fill="url(#b)"/><path d="m27.121094 56.066406h-5.289063v2.648438h5.289063zm0 0" fill="url(#c)"/><path d="m27.121094 56.066406h-5.289063v-2.644531h5.289063zm0 0" fill="url(#d)"/><path d="m36.382812 56.066406h5.292969v2.648438h-5.292969zm0 0" fill="url(#e)"/><path d="m27.121094 55.40625h9.261718v3.308594h-9.261718zm0 0" fill="url(#f)"/><path d="m31.753906 5.601562c13.882813 0 25.136719 11.253907 25.136719 25.136719 0 13.886719-11.253906 25.140625-25.136719 25.140625-13.882812 0-25.140625-11.253906-25.140625-25.140625 0-13.882812 11.257813-25.136719 25.140625-25.136719zm0 0" fill="url(#h)"/><path d="m31.753906 55.738281c-13.925781 0-25.140625-11.210937-25.140625-25.140625 0-.082031.003907-.164062.003907-.246094.128906 13.8125 11.292968 24.894532 25.136718 24.894532s25.003906-11.082032 25.136719-24.894532v.246094c0 13.929688-11.210937 25.140625-25.136719 25.140625zm0 0" fill-opacity=".196078"/><path d="m31.753906 5.792969c-13.925781 0-25.140625 11.210937-25.140625 25.136719 0 .082031.003907.164062.003907.246093.128906-13.8125 11.292968-24.890625 25.136718-24.890625s25.003906 11.078125 25.136719 24.890625c0-.082031 0-.164062 0-.246093 0-13.925782-11.210937-25.136719-25.136719-25.136719zm0 0" fill="#fff" fill-opacity=".392157"/><path d="m31.753906 5.414062c-14.027344 0-25.328125 11.296876-25.328125 25.324219 0 14.027344 11.300781 25.328125 25.328125 25.328125s25.324219-11.300781 25.324219-25.328125c0-14.027343-11.296875-25.324219-25.324219-25.324219zm0 .375c13.824219 0 24.949219 11.125 24.949219 24.949219 0 13.828125-11.125 24.953125-24.949219 24.953125-13.828125 0-24.953125-11.125-24.953125-24.953125 0-13.824219 11.125-24.949219 24.953125-24.949219zm0 0" fill="#212121"/><path d="m33.640625 9.570312c10.648437 0 19.28125 8.632813 19.28125 19.28125 0 10.644532-8.632813 19.277344-19.28125 19.277344-10.644531 0-19.277344-8.632812-19.277344-19.277344 0-10.648437 8.632813-19.28125 19.277344-19.28125zm0 0" fill="url(#i)"/><path d="m29.4375 17.511719c-1.464844 0-2.644531 1.179687-2.644531 2.644531v17.25c0 1.464844 1.179687 2.648438 2.644531 2.648438 1.324219.003906 12.128906-7.246094 18.191406-10.914063.992188-.660156.992188-1.320313 0-1.984375-6.0625-3.214844-16.207031-9.589844-18.191406-9.644531zm0 0" fill="url(#j)"/><path d="m29.4375 17.644531c-1.464844 0-2.644531 1.183594-2.644531 2.648438v.550781c0-1.46875 1.179687-2.648438 2.644531-2.648438 1.984375.054688 12.128906 6.429688 18.191406 9.644532.359375.242187.585938.480468.6875.71875.175782-.421875-.054687-.84375-.6875-1.265625-6.0625-3.214844-16.207031-9.59375-18.191406-9.648438zm0 0" fill="#fff" fill-opacity=".392157"/><path d="m29.4375 17.324219c-1.566406 0-2.832031 1.265625-2.832031 2.832031v17.25c0 1.566406 1.265625 2.832031 2.832031 2.835938.25 0 .550781-.128907.992188-.335938.441406-.210938 1-.507812 1.648437-.878906 1.296875-.738282 2.964844-1.757813 4.777344-2.894532 3.625-2.269531 7.84375-5 10.871093-6.832031h.003907l.003906-.003906c.519531-.34375.828125-.722656.828125-1.148437 0-.421876-.308594-.800782-.828125-1.148438l-.015625-.007812c-3.027344-1.605469-7.078125-4.003907-10.621094-6.007813-1.773437-1-3.417968-1.90625-4.75-2.5625-.664062-.328125-1.25-.597656-1.738281-.785156-.488281-.191407-.871094-.304688-1.167969-.3125zm-.003906.375c.199218.007812.570312.101562 1.039062.285156s1.050782.445313 1.707032.773437c1.320312.652344 2.960937 1.554688 4.730468 2.554688 3.535156 2 7.578125 4.390625 10.617188 6.003906.46875.3125.660156.597656.660156.832032 0 .238281-.191406.523437-.660156.835937-3.039063 1.839844-7.25 4.566406-10.871094 6.832031-1.8125 1.132813-3.472656 2.152344-4.761719 2.886719-.644531.367187-1.199219.660156-1.625.863281-.425781.199219-.75.300782-.832031.300782-1.363281 0-2.457031-1.09375-2.457031-2.460938v-17.25c0-1.363281 1.089843-2.453125 2.453125-2.457031zm0 0" fill="#212121"/><path d="m48.1875 28.78125c-.125.164062-.308594.328125-.558594.496094-6.0625 3.667968-16.867187 10.914062-18.191406 10.910156-1.464844 0-2.644531-1.179688-2.644531-2.648438v.992188c0 1.46875 1.179687 2.648438 2.644531 2.648438 1.324219.003906 12.128906-7.242188 18.191406-10.910157.746094-.496093.929688-.992187.558594-1.488281zm0 0" fill-opacity=".235294"/><path d="m33.640625 9.570312c-10.679687 0-19.277344 8.597657-19.277344 19.28125 0 .128907 0 .257813.003907.382813.203124-10.5 8.722656-18.890625 19.273437-18.890625 10.554687 0 19.074219 8.390625 19.277344 18.890625.003906-.125.003906-.253906.003906-.382813 0-10.683593-8.597656-19.28125-19.28125-19.28125zm0 0" fill-opacity=".235294"/><path d="m33.640625 48.957031c-10.679687 0-19.277344-8.597656-19.277344-19.28125 0-.128906 0-.257812.003907-.382812.203124 10.5 8.722656 18.890625 19.273437 18.890625 10.554687 0 19.074219-8.390625 19.277344-18.890625.003906.125.003906.253906.003906.382812 0 10.683594-8.597656 19.28125-19.28125 19.28125zm0 0" fill="#fff" fill-opacity=".392157"/><path d="m269.099302-138.444811c85.179366 0 154.235272 69.055906 154.235272 154.235272 0 85.148118-69.055906 154.204024-154.235272 154.204024-85.148118 0-154.204024-69.055906-154.204024-154.204024 0-85.179366 69.055906-154.235272 154.204024-154.235272zm0 0" fill="none" stroke="#212121" stroke-linecap="round" stroke-width="3" transform="matrix(.125012 0 0 .125012 0 26.877566)"/></svg>

<?xml version="1.0" encoding="UTF-8"?>
<svg xmlns="http://www.w3.org/2000/svg" xmlns:xlink="http://www.w3.org/1999/xlink" width="64px" height="64px" viewBox="0 0 64 64" version="1.1">
<defs>
<radialGradient id="radial0" gradientUnits="userSpaceOnUse" cx="450.908936" cy="189.579361" fx="450.908936" fy="189.579361" r="21.166656" gradientTransform="matrix(0.000000348341,-0.156265,-0.281277,-0.000000203077,89.046304,127.190659)">
<stop offset="0" style="stop-color:rgb(0%,0%,0%);stop-opacity:0.313726;"/>
<stop offset="0.222222" style="stop-color:rgb(0%,0%,0%);stop-opacity:0.27451;"/>
<stop offset="1" style="stop-color:rgb(0%,0%,0%);stop-opacity:0;"/>
</radialGradient>
<radialGradient id="radial1" gradientUnits="userSpaceOnUse" cx="450.908936" cy="189.579361" fx="450.908936" fy="189.579361" r="21.166656" gradientTransform="matrix(-0.000000348341,0.156265,0.281277,0.000000203077,-25.540237,-15.054964)">
<stop offset="0" style="stop-color:rgb(0%,0%,0%);stop-opacity:0.313726;"/>
<stop offset="0.222222" style="stop-color:rgb(0%,0%,0%);stop-opacity:0.27451;"/>
<stop offset="1" style="stop-color:rgb(0%,0%,0%);stop-opacity:0;"/>
</radialGradient>
<radialGradient id="radial2" gradientUnits="userSpaceOnUse" cx="450.908936" cy="189.579361" fx="450.908936" fy="189.579361" r="21.166656" gradientTransform="matrix(-0.000000348341,-0.156265,0.281277,-0.000000203077,-25.540237,127.190659)">
<stop offset="0" style="stop-color:rgb(0%,0%,0%);stop-opacity:0.313726;"/>
<stop offset="0.222222" style="stop-color:rgb(0%,0%,0%);stop-opacity:0.27451;"/>
<stop offset="1" style="stop-color:rgb(0%,0%,0%);stop-opacity:0;"/>
</radialGradient>
<radialGradient id="radial3" gradientUnits="userSpaceOnUse" cx="450.908936" cy="189.579361" fx="450.908936" fy="189.579361" r="21.166656" gradientTransform="matrix(0.000000348341,0.156265,-0.281277,0.000000203077,89.0463,-15.054965)">
<stop offset="0" style="stop-color:rgb(0%,0%,0%);stop-opacity:0.313726;"/>
<stop offset="0.222222" style="stop-color:rgb(0%,0%,0%);stop-opacity:0.27451;"/>
<stop offset="1" style="stop-color:rgb(0%,0%,0%);stop-opacity:0;"/>
</radialGradient>
<linearGradient id="linear0" gradientUnits="userSpaceOnUse" x1="255.323059" y1="233.5" x2="255.323044" y2="254.666656" gradientTransform="matrix(0.0267201,0,0,0.125012,24.930772,26.877567)">
<stop offset="0" style="stop-color:rgb(0%,0%,0%);stop-opacity:0.27451;"/>
<stop offset="1" style="stop-color:rgb(0%,0%,0%);stop-opacity:0;"/>
</linearGradient>
<linearGradient id="linear1" gradientUnits="userSpaceOnUse" x1="254" y1="-168.666672" x2="254" y2="233.5" gradientTransform="matrix(0.125012,0,0,0.125012,0,26.687447)">
<stop offset="0" style="stop-color:rgb(30.19608%,71.372551%,67.450982%);stop-opacity:1;"/>
<stop offset="1" style="stop-color:rgb(14.901961%,65.098041%,60.392159%);stop-opacity:1;"/>
</linearGradient>
<linearGradient id="linear2" gradientUnits="userSpaceOnUse" x1="275.166656" y1="-126.333344" x2="275.166656" y2="170" gradientTransform="matrix(0.130118,0,0,0.130118,-2.161659,27.386582)">
<stop offset="0" style="stop-color:rgb(87.843138%,87.843138%,87.843138%);stop-opacity:1;"/>
<stop offset="1" style="stop-color:rgb(93.333334%,93.333334%,93.333334%);stop-opacity:1;"/>
</linearGradient>
<linearGradient id="linear3" gradientUnits="userSpaceOnUse" x1="283.104187" y1="-93.509773" x2="283.104187" y2="86.406898" gradientTransform="matrix(0.125012,0,0,0.125012,1.653803,29.389444)">
<stop offset="0" style="stop-color:rgb(30.19608%,71.372551%,67.450982%);stop-opacity:1;"/>
<stop offset="1" style="stop-color:rgb(14.901961%,65.098041%,60.392159%);stop-opacity:1;"/>
</linearGradient>
</defs>
<g id="surface1">
<path style=" stroke:none;fill-rule:nonzero;fill:url(#radial0);" d="M 36.382812 56.066406 L 41.675781 56.066406 L 41.675781 53.421875 L 36.382812 53.421875 Z M 36.382812 56.066406 "/>
<path style=" stroke:none;fill-rule:nonzero;fill:url(#radial1);" d="M 27.121094 56.066406 L 21.832031 56.066406 L 21.832031 58.714844 L 27.121094 58.714844 Z M 27.121094 56.066406 "/>
<path style=" stroke:none;fill-rule:nonzero;fill:url(#radial2);" d="M 27.121094 56.066406 L 21.832031 56.066406 L 21.832031 53.421875 L 27.121094 53.421875 Z M 27.121094 56.066406 "/>
<path style=" stroke:none;fill-rule:nonzero;fill:url(#radial3);" d="M 36.382812 56.066406 L 41.675781 56.066406 L 41.675781 58.714844 L 36.382812 58.714844 Z M 36.382812 56.066406 "/>
<path style=" stroke:none;fill-rule:nonzero;fill:url(#linear0);" d="M 27.121094 55.40625 L 36.382812 55.40625 L 36.382812 58.714844 L 27.121094 58.714844 Z M 27.121094 55.40625 "/>
<path style=" stroke:none;fill-rule:nonzero;fill:url(#linear1);" d="M 31.753906 5.601562 C 45.636719 5.601562 56.890625 16.855469 56.890625 30.738281 C 56.890625 44.625 45.636719 55.878906 31.753906 55.878906 C 17.871094 55.878906 6.613281 44.625 6.613281 30.738281 C 6.613281 16.855469 17.871094 5.601562 31.753906 5.601562 Z M 31.753906 5.601562 "/>
<path style=" stroke:none;fill-rule:nonzero;fill:rgb(0%,0%,0%);fill-opacity:0.196078;" d="M 31.753906 55.738281 C 17.828125 55.738281 6.613281 44.527344 6.613281 30.597656 C 6.613281 30.515625 6.617188 30.433594 6.617188 30.351562 C 6.746094 44.164062 17.910156 55.246094 31.753906 55.246094 C 45.597656 55.246094 56.757812 44.164062 56.890625 30.351562 C 56.890625 30.433594 56.890625 30.515625 56.890625 30.597656 C 56.890625 44.527344 45.679688 55.738281 31.753906 55.738281 Z M 31.753906 55.738281 "/>
<path style=" stroke:none;fill-rule:nonzero;fill:rgb(100%,100%,100%);fill-opacity:0.392157;" d="M 31.753906 5.792969 C 17.828125 5.792969 6.613281 17.003906 6.613281 30.929688 C 6.613281 31.011719 6.617188 31.09375 6.617188 31.175781 C 6.746094 17.363281 17.910156 6.285156 31.753906 6.285156 C 45.597656 6.285156 56.757812 17.363281 56.890625 31.175781 C 56.890625 31.09375 56.890625 31.011719 56.890625 30.929688 C 56.890625 17.003906 45.679688 5.792969 31.753906 5.792969 Z M 31.753906 5.792969 "/>
<path style=" stroke:none;fill-rule:nonzero;fill:rgb(12.941177%,12.941177%,12.941177%);fill-opacity:1;" d="M 31.753906 5.414062 C 17.726562 5.414062 6.425781 16.710938 6.425781 30.738281 C 6.425781 44.765625 17.726562 56.066406 31.753906 56.066406 C 45.78125 56.066406 57.078125 44.765625 57.078125 30.738281 C 57.078125 16.710938 45.78125 5.414062 31.753906 5.414062 Z M 31.753906 5.789062 C 45.578125 5.789062 56.703125 16.914062 56.703125 30.738281 C 56.703125 44.566406 45.578125 55.691406 31.753906 55.691406 C 17.925781 55.691406 6.800781 44.566406 6.800781 30.738281 C 6.800781 16.914062 17.925781 5.789062 31.753906 5.789062 Z M 31.753906 5.789062 "/>
<path style=" stroke:none;fill-rule:nonzero;fill:url(#linear2);" d="M 33.640625 9.570312 C 44.289062 9.570312 52.921875 18.203125 52.921875 28.851562 C 52.921875 39.496094 44.289062 48.128906 33.640625 48.128906 C 22.996094 48.128906 14.363281 39.496094 14.363281 28.851562 C 14.363281 18.203125 22.996094 9.570312 33.640625 9.570312 Z M 33.640625 9.570312 "/>
<path style=" stroke:none;fill-rule:nonzero;fill:url(#linear3);" d="M 29.4375 17.511719 C 27.972656 17.511719 26.792969 18.691406 26.792969 20.15625 L 26.792969 37.40625 C 26.792969 38.871094 27.972656 40.054688 29.4375 40.054688 C 30.761719 40.058594 41.566406 32.808594 47.628906 29.140625 C 48.621094 28.480469 48.621094 27.820312 47.628906 27.15625 C 41.566406 23.941406 31.421875 17.566406 29.4375 17.511719 Z M 29.4375 17.511719 "/>
<path style=" stroke:none;fill-rule:nonzero;fill:rgb(100%,100%,100%);fill-opacity:0.392157;" d="M 29.4375 17.644531 C 27.972656 17.644531 26.792969 18.828125 26.792969 20.292969 L 26.792969 20.84375 C 26.792969 19.375 27.972656 18.195312 29.4375 18.195312 C 31.421875 18.25 41.566406 24.625 47.628906 27.839844 C 47.988281 28.082031 48.214844 28.320312 48.316406 28.558594 C 48.492188 28.136719 48.261719 27.714844 47.628906 27.292969 C 41.566406 24.078125 31.421875 17.699219 29.4375 17.644531 Z M 29.4375 17.644531 "/>
<path style=" stroke:none;fill-rule:nonzero;fill:rgb(12.941177%,12.941177%,12.941177%);fill-opacity:1;" d="M 29.4375 17.324219 C 27.871094 17.324219 26.605469 18.589844 26.605469 20.15625 L 26.605469 37.40625 C 26.605469 38.972656 27.871094 40.238281 29.4375 40.242188 C 29.6875 40.242188 29.988281 40.113281 30.429688 39.90625 C 30.871094 39.695312 31.429688 39.398438 32.078125 39.027344 C 33.375 38.289062 35.042969 37.269531 36.855469 36.132812 C 40.480469 33.863281 44.699219 31.132812 47.726562 29.300781 L 47.730469 29.300781 L 47.734375 29.296875 C 48.253906 28.953125 48.5625 28.574219 48.5625 28.148438 C 48.5625 27.726562 48.253906 27.347656 47.734375 27 L 47.71875 26.992188 C 44.691406 25.386719 40.640625 22.988281 37.097656 20.984375 C 35.324219 19.984375 33.679688 19.078125 32.347656 18.421875 C 31.683594 18.09375 31.097656 17.824219 30.609375 17.636719 C 30.121094 17.445312 29.738281 17.332031 29.441406 17.324219 Z M 29.433594 17.699219 C 29.632812 17.707031 30.003906 17.800781 30.472656 17.984375 C 30.941406 18.167969 31.523438 18.429688 32.179688 18.757812 C 33.5 19.410156 35.140625 20.3125 36.910156 21.3125 C 40.445312 23.3125 44.488281 25.703125 47.527344 27.316406 C 47.996094 27.628906 48.1875 27.914062 48.1875 28.148438 C 48.1875 28.386719 47.996094 28.671875 47.527344 28.984375 C 44.488281 30.824219 40.277344 33.550781 36.65625 35.816406 C 34.84375 36.949219 33.183594 37.96875 31.894531 38.703125 C 31.25 39.070312 30.695312 39.363281 30.269531 39.566406 C 29.84375 39.765625 29.519531 39.867188 29.4375 39.867188 C 28.074219 39.867188 26.980469 38.773438 26.980469 37.40625 L 26.980469 20.15625 C 26.980469 18.792969 28.070312 17.703125 29.433594 17.699219 Z M 29.433594 17.699219 "/>
<path style=" stroke:none;fill-rule:nonzero;fill:rgb(0%,0%,0%);fill-opacity:0.235294;" d="M 48.1875 28.78125 C 48.0625 28.945312 47.878906 29.109375 47.628906 29.277344 C 41.566406 32.945312 30.761719 40.191406 29.4375 40.1875 C 27.972656 40.1875 26.792969 39.007812 26.792969 37.539062 L 26.792969 38.53125 C 26.792969 40 27.972656 41.179688 29.4375 41.179688 C 30.761719 41.183594 41.566406 33.9375 47.628906 30.269531 C 48.375 29.773438 48.558594 29.277344 48.1875 28.78125 Z M 48.1875 28.78125 "/>
<path style=" stroke:none;fill-rule:nonzero;fill:rgb(0%,0%,0%);fill-opacity:0.235294;" d="M 33.640625 9.570312 C 22.960938 9.570312 14.363281 18.167969 14.363281 28.851562 C 14.363281 28.980469 14.363281 29.109375 14.367188 29.234375 C 14.570312 18.734375 23.089844 10.34375 33.640625 10.34375 C 44.195312 10.34375 52.714844 18.734375 52.917969 29.234375 C 52.921875 29.109375 52.921875 28.980469 52.921875 28.851562 C 52.921875 18.167969 44.324219 9.570312 33.640625 9.570312 Z M 33.640625 9.570312 "/>
<path style=" stroke:none;fill-rule:nonzero;fill:rgb(100%,100%,100%);fill-opacity:0.392157;" d="M 33.640625 48.957031 C 22.960938 48.957031 14.363281 40.359375 14.363281 29.675781 C 14.363281 29.546875 14.363281 29.417969 14.367188 29.292969 C 14.570312 39.792969 23.089844 48.183594 33.640625 48.183594 C 44.195312 48.183594 52.714844 39.792969 52.917969 29.292969 C 52.921875 29.417969 52.921875 29.546875 52.921875 29.675781 C 52.921875 40.359375 44.324219 48.957031 33.640625 48.957031 Z M 33.640625 48.957031 "/>
<path style="fill:none;stroke-width:3;stroke-linecap:round;stroke-linejoin:miter;stroke:rgb(12.941177%,12.941177%,12.941177%);stroke-opacity:1;stroke-miterlimit:4;" d="M 269.099302 -138.444811 C 354.278668 -138.444811 423.334574 -69.388905 423.334574 15.790461 C 423.334574 100.938579 354.278668 169.994485 269.099302 169.994485 C 183.951184 169.994485 114.895278 100.938579 114.895278 15.790461 C 114.895278 -69.388905 183.951184 -138.444811 269.099302 -138.444811 Z M 269.099302 -138.444811 " transform="matrix(0.125012,0,0,0.125012,0,26.877566)"/>
</g>
</svg>
